svg/u002a.svg

<svg viewBox="0 0 128 128" xmlns="http://www.w3.org/2000/svg">
  <linearGradient id="SVGID_1_" gradientUnits="userSpaceOnUse" x1="64.0022" x2="64.0022" y1="100.0764" y2="28.6347">
    <stop offset="0.4852" stop-color="#504F4F"/>
    <stop offset="1" stop-color="#757575"/>
  </linearGradient>
  <path d="M50.92,67.87L29.87,61.8c-1.04-0.3-1.62-1.4-1.29-2.43l3.38-10.39 c0.34-1.04,1.49-1.59,2.51-1.19l20.78,8.04c1.29,0.5,2.66-0.49,2.6-1.87L56.81,30c-0.05-1.09,0.82-2,1.91-2h11.05 c1.09,0,1.96,0.91,1.91,2l-1.05,24.48c-0.06,1.38,1.32,2.36,2.6,1.87l20.34-7.87c1.03-0.4,2.18,0.16,2.52,1.21l3.34,10.62 c0.32,1.03-0.27,2.12-1.3,2.41l-21.48,6.09c-1.29,0.37-1.81,1.92-1.01,2.99L89.6,90.38c0.64,0.85,0.46,2.06-0.4,2.69l-8.96,6.55 c-0.9,0.66-2.16,0.41-2.75-0.53L65.05,79.2c-0.75-1.19-2.48-1.2-3.23-0.02L49.55,98.41c-0.59,0.92-1.82,1.16-2.71,0.54l-9.01-6.29 c-0.89-0.62-1.09-1.86-0.43-2.73l14.5-19.06C52.73,69.8,52.22,68.25,50.92,67.87L50.92,67.87z" fill="url(#SVGID_1_)"/>
</svg>

<svg viewBox="0 0 128 128" xmlns="http://www.w3.org/2000/svg">
  <defs>
    <linearGradient id="SVGID_1_" gradientUnits="userSpaceOnUse" x1="64.0022" x2="64.0022" y1="100.0764" y2="28.6347">
      <stop offset="0.4852" stop-color="#504F4F"/>
      <stop offset="1" stop-color="#757575"/>
    </linearGradient>
  </defs>
  <path d="M50.92,67.87 L29.87,61.8 C28.83,61.5 28.25,60.4 28.58,59.37 L31.96,48.98 C32.3,47.94 33.45,47.39 34.47,47.79 L55.25,55.83 C56.54,56.33 57.91,55.34 57.85,53.96 L56.81,30 C56.76,28.91 57.63,28 58.72,28 L69.77,28 C70.86,28 71.73,28.91 71.68,30 L70.63,54.48 C70.57,55.86 71.95,56.84 73.23,56.35 L93.57,48.48 C94.6,48.08 95.75,48.64 96.09,49.69 L99.43,60.31 C99.75,61.34 99.16,62.43 98.13,62.72 L76.65,68.81 C75.36,69.18 74.84,70.73 75.64,71.8 L89.6,90.38 C90.24,91.23 90.06,92.44 89.2,93.07 L80.24,99.62 C79.34,100.28 78.08,100.03 77.49,99.09 L65.05,79.2 C64.3,78.01 62.57,78 61.82,79.18 L49.55,98.41 C48.96,99.33 47.73,99.57 46.84,98.95 L37.83,92.66 C36.94,92.04 36.74,90.8 37.4,89.93 L51.9,70.87 C52.73,69.8 52.22,68.25 50.92,67.87 L50.92,67.87 Z" fill="url(#SVGID_1_)"/>
</svg>
